!!!OTL: ZU STEFFEN SPRACH IM TRAUME
!!!ARE: Europa, Mitteleuropa, Deutschland
!!!SCT: B0161
!!!YEM: Copyright 1995, estate of Helmut Schaffrath.
**kern
*ICvox
*Ivox
*M2/4
*k[b-e-a-]
*E-:
{8B-
=1
8e-
8e-
8d
8B-
=2
8.f
16g
8e-}
{8b-
=3
8b-
16a-
16g
16g
16f
16f
16e-
=4
4g
8f}
{8B-
=5
8e-
8e-
8d
8B-
=6
8.f
16g
8e-}
{8b-
=7
8b-
16a-
16g
8g
8f
=8
4e-
8r}
{8B-
=9
8An
8B-
8Bn
8B-
=10
4g-
8f}
{8b-
=11
8an
8g-
8f
8e-
=12
4.B-}
{8B-
=13
8e-
8e-
8d
8B-
=14
8.f
16g
8e-}
{8b-
=15
8b-
16a-
16g
8g
8f
=16
4e-
8r}
{8A-
=17
8G
8c
8F
8B-
=18
4.E-}
==
!!!AGN: Ballade, Romanze
!!!ONB: ESAC (Essen Associative Code) Database: BOEHME
!!!AMT: simple duple
!!!AIN: vox
!!!EED: Helmut Schaffrath
!!!EEV: 1.0
*-
